X:1
T:A Sinner Saved by Grace
T:Charles Hutchinson Gabriel
T:A Sinner Saved by Grace
T:Public Domain
T:Public Domain
C:Charles Hutchinson Gabriel
Z:Public Domain
%%score ( 1 2 ) ( 3 4 )
L:1/8
M:4/4
K:D
V:1 treble 
V:2 treble 
V:3 bass 
V:4 bass 
V:1
 [DF]2 [DF][DE] D[CE][DF][FA] | [Fd]6 [Ac]2 | [GB]3 [G^A] [GB][Bd][=Ac][GB] | [FA]6 [DF]2 | %4
w: 1.~Weak and un- wor- thy tho’ I|Yet Christ,|the Sav- ior, died for me;|And I|
w: 2.~Wea- ry of sin, to Him I|And asked|for par- don in His Name;|He heard,|
w: 3.~Tho’ fierce temp- ta- tions press me|I’ll leave|my Sav- ior ne- ver more;|In Heav’n|
 [EG]3 [DF] [CE][DF][EG][FA] | [Ec]6 [FB]2 | [EA]3 E [EA][Ec][Ec][DB] | [CA]6 ||"^Refrain" [GA]2 | %9
w: shall see His bless- èd face,|For I’m|a sin- ner saved by grace.|glo-|ry|
w: and now in His em- brace|I live,|a sin- ner saved by grace.|||
w: He has pre- pared a place|For me,|a sin- ner saved by grace.|||
 (FFFF d)dcB | [FA][DF](FF F2) (DD) | [GA][CE](GG G2) ([GB][GA]) | [FA][DF](FF F2) [GA]2 | %13
w: I * * * * shall see His|èd * face, * * His *|face; In glo- * * ry *|shall see His * * face,|
w: ||||
w: ||||
 (FFFF d)ded | [Gd][GB](GG [Gd])[Gd][^Ec][EB] | [FA] [Fd]3 [DF]2 [CE]2 | D6 z2 |] %17
w: I’m * * * * a sin- ner||||
w: ||||
w: ||||
V:2
 x4 D x3 | x8 | x8 | x8 | x8 | x8 | x3 E x4 | x6 || x2 | d4- F2 G2 | x2 A4 A2 | x2 A4 x2 | %12
w: be,||||||In|||face, His bless-|bless- èd|I|
w: came,||||||||||||
w: sore,||||||||||||
 x2 A4 x2 | d4- F2 A2 | x2 d2- x4 | x8 | D6 x2 |] %17
w: For|saved by grace.||||
w: |||||
w: |||||
V:3
 [D,A,]2 [D,A,][D,G,] [D,F,][A,,A,][D,A,][D,D] | [D,A,]6 [F,D]2 | %2
w: ~ ~ ~ ~ ~ ~ ~|~ ~|
 [G,D]3 [G,C] [G,D][G,D][G,D][G,D] | [D,D]6 [D,A,]2 | %4
w: ~ ~ ~ ~ ~ ~|~ ~|
 [A,,A,]3 [A,,A,] [A,,A,][A,,A,][A,,A,][A,,A,] | A,,4 C,2 [D,D]2 | %6
w: ~ ~ ~ ~ ~ ~|~ ~ ~|
 [E,C]3 [E,C] [E,C][E,A,][E,^G,][E,G,] | [A,,A,]6 || [A,C]2 | %9
w: ~ ~ ~ ~ ~ ~|In|glo-|
 [D,A,][D,A,][D,A,][D,A,] [D,A,]2 [D,D]2 | [D,D][D,A,][D,D][D,D] [D,D]2 [F,D][F,D] | %11
w: ry I shall see His face,|His bless- èd face, I shall see|
 [E,C]A,[A,,C][A,,C] [A,,C]2 [A,,C][A,,C] | [D,D][D,A,][D,D][D,D] [D,D]2 [A,C]2 | %13
w: His bless- èd face, I shall see|bless- èd face; In glo- ry|
 [D,A,][D,A,][D,A,][D,A,] [D,A,]2 [F,=C]2 | [G,B,][G,B,][G,B,][G,B,] [G,B,][G,B,][^G,B,][G,D] | %15
w: I shall see His face, His|bless- èd face, * * * * *|
 [A,D] A,3 [A,,A,]2 [A,,G,]2 | [D,F,]6 z2 |] %17
w: ||
V:4
 x8 | x8 | x8 | x8 | x8 | A,6 x2 | x8 | x6 || x2 | x8 | x8 | x A, x6 | x8 | x8 | x8 | x A,3 x4 | %16
w: |||||~||||||His|||||
 x8 |] %17
w: |

